CN6T1/184/aimg/feliz2.svg

<svg clip-rule="evenodd" fill-rule="evenodd" stroke-miterlimit="10" viewBox="0 0 215 215" xmlns="http://www.w3.org/2000/svg"><circle cx="-20.771" fill="none" r="20.771" stroke="#aae1fa" stroke-width=".98" transform="matrix(0 -4.16667 -4.16667 0 107.00918438 20.45369265)"/><g fill-rule="nonzero"><path d="m0 2.957c.219.136.51-.019.51-.278v-.006c0-1.551-1.257-2.809-2.808-2.809-1.552 0-2.808 1.258-2.808 2.809v.006c0 .259.291.414.511.278.668-.413 1.454-.651 2.297-.651.842 0 1.629.238 2.298.651" fill="#c7eafb" transform="matrix(4.16667 0 0 4.16667 165.56756456 83.26207623)"/><path d="m0 2.957c.22.136.51-.019.511-.278v-.006c0-1.551-1.258-2.809-2.809-2.809s-2.808 1.258-2.808 2.809v.006c0 .259.291.414.511.278.667-.413 1.454-.651 2.297-.651s1.63.238 2.298.651" fill="#c7eafb" transform="matrix(4.16667 0 0 4.16667 67.59665285 83.26207623)"/><path d="m0-6.798c-.679.23-1.066.97-.802 1.638 1.584 4.006 6.224 7.382 11.674 7.382 5.446 0 10.088-3.376 11.672-7.382.263-.668-.124-1.408-.802-1.638-6.567-2.222-15.176-2.222-21.742 0" fill="#c7eafb" transform="matrix(4.16667 0 0 4.16667 61.70914814 148.74546195)"/><path d="m6.133-5.561c.857 1.74 1.371 3.731 1.371 5.848 0 2.114-.514 4.105-1.371 5.846-1.214-1.611-1.943-3.638-1.943-5.846 0-2.21.729-4.238 1.943-5.848" fill="#8dd8f8" transform="matrix(0 4.16667 4.16667 0 105.81335009 126.73711101)"/></g></svg>

<?xml version="1.0" encoding="UTF-8" standalone="no"?>
<!DOCTYPE svg PUBLIC "-//W3C//DTD SVG 1.1//EN" "http://www.w3.org/Graphics/SVG/1.1/DTD/svg11.dtd">
<svg width="100%" height="100%" viewBox="0 0 215 215" version="1.1" xmlns="http://www.w3.org/2000/svg" xmlns:xlink="http://www.w3.org/1999/xlink" xml:space="preserve" xmlns:serif="http://www.serif.com/" style="fill-rule:evenodd;clip-rule:evenodd;stroke-miterlimit:10;">
    <g transform="matrix(1,0,0,1,-11852.5,-5057.96)">
        <g transform="matrix(4.16667,0,0,4.16667,10895.7,3587.6)">
            <g transform="matrix(0,-1,-1,0,255.314,357.795)">
                <circle cx="-20.771" cy="0" r="20.771" style="fill:none;stroke:rgb(170,225,250);stroke-width:0.98px;"/>
            </g>
        </g>
        <g transform="matrix(4.16667,0,0,4.16667,10895.7,3587.6)">
            <g transform="matrix(1,0,0,1,269.368,372.869)">
                <path d="M0,2.957C0.219,3.093 0.51,2.938 0.51,2.679L0.51,2.673C0.51,1.122 -0.747,-0.136 -2.298,-0.136C-3.85,-0.136 -5.106,1.122 -5.106,2.673L-5.106,2.679C-5.106,2.938 -4.815,3.093 -4.595,2.957C-3.927,2.544 -3.141,2.306 -2.298,2.306C-1.456,2.306 -0.669,2.544 0,2.957" style="fill:rgb(199,234,251);fill-rule:nonzero;"/>
            </g>
        </g>
        <g transform="matrix(4.16667,0,0,4.16667,10895.7,3587.6)">
            <g transform="matrix(1,0,0,1,245.855,372.869)">
                <path d="M0,2.957C0.22,3.093 0.51,2.938 0.511,2.679L0.511,2.673C0.511,1.122 -0.747,-0.136 -2.298,-0.136C-3.849,-0.136 -5.106,1.122 -5.106,2.673L-5.106,2.679C-5.106,2.938 -4.815,3.093 -4.595,2.957C-3.928,2.544 -3.141,2.306 -2.298,2.306C-1.455,2.306 -0.668,2.544 0,2.957" style="fill:rgb(199,234,251);fill-rule:nonzero;"/>
            </g>
        </g>
        <g transform="matrix(4.16667,0,0,4.16667,10895.7,3587.6)">
            <g transform="matrix(1,0,0,1,244.442,388.585)">
                <path d="M0,-6.798C-0.679,-6.568 -1.066,-5.828 -0.802,-5.16C0.782,-1.154 5.422,2.222 10.872,2.222C16.318,2.222 20.96,-1.154 22.544,-5.16C22.807,-5.828 22.42,-6.568 21.742,-6.798C15.175,-9.02 6.566,-9.02 0,-6.798" style="fill:rgb(199,234,251);fill-rule:nonzero;"/>
            </g>
        </g>
        <g transform="matrix(4.16667,0,0,4.16667,10895.7,3587.6)">
            <g transform="matrix(0,1,1,0,255.027,383.303)">
                <path d="M6.133,-5.561C6.99,-3.821 7.504,-1.83 7.504,0.287C7.504,2.401 6.99,4.392 6.133,6.133C4.919,4.522 4.19,2.495 4.19,0.287C4.19,-1.923 4.919,-3.951 6.133,-5.561" style="fill:rgb(141,216,248);fill-rule:nonzero;"/>
            </g>
        </g>
    </g>
</svg>
